X:421
T: "Jagdglueck"
N: Z1101
O: Europa, Mitteleuropa, Deutschland, Schwaben
R: Romanze, Ballade, Jaeger - Lied
M: 6/8
L: 1/8
K: D
A, | A,2F,A,2F, | D2B,A,2A, | D2A,D2E | F3Ez
A, | A,2F,A,2F, | DCB,A,2A, | D2A,D2E | F3Ez
E | E2DC2E | EFDC2E | E2EF2E | DEFE2
D | D3A,2F | F3D2F | A2FAGF | E3ED
E | F3E3 | D3-D2

@@@ Tune index: 10179
